X:425
T:He Who Would Valiant Be (Monks Gate)
M:4/4
L:1/4
K:G
G>A B G | B/c/ d e2 | d2 d G | F G-G2 |
G>A B G | B/c/ d e2 | d2 d>G | F G-G2 |
d2 g e | f g/f/ e2 | -ed B/A/ G | B c d2 | -d g d>d |
e/d/c/B/ A e | d G F G | -G4 ||
